images/social_media/linkedin_3.svg

<svg width="50" height="50" viewBox="0 0 50 50" fill="none" xmlns="http://www.w3.org/2000/svg">
<path d="M24.9701 0C28.4349 0 31.6806 0.657109 34.7073 1.97133C37.734 3.28554 40.3823 5.0677 42.6523 7.3178C44.9223 9.5679 46.7145 12.2063 48.0287 15.233C49.3429 18.2597 50 21.5054 50 24.9701C50 28.4349 49.3429 31.6806 48.0287 34.7073C46.7145 37.734 44.9223 40.3823 42.6523 42.6523C40.3823 44.9223 37.734 46.7145 34.7073 48.0287C31.6806 49.3429 28.4349 50 24.9701 50C21.5054 50 18.2597 49.3429 15.233 48.0287C12.2063 46.7145 9.5679 44.9223 7.3178 42.6523C5.0677 40.3823 3.28554 37.734 1.97133 34.7073C0.657109 31.6806 0 28.4349 0 24.9701C0 21.5054 0.657109 18.2597 1.97133 15.233C3.28554 12.2063 5.0677 9.5679 7.3178 7.3178C9.5679 5.0677 12.2063 3.28554 15.233 1.97133C18.2597 0.657109 21.5054 0 24.9701 0ZM17.2043 18.7575H10.9319V39.0681H17.2043V18.7575ZM14.0382 17.1446C14.9144 17.1446 15.6611 16.8459 16.2784 16.2485C16.8957 15.6511 17.2043 14.9144 17.2043 14.0382C17.2043 13.1621 16.8957 12.4253 16.2784 11.828C15.6611 11.2306 14.9144 10.9319 14.0382 10.9319C13.1621 10.9319 12.4253 11.2306 11.828 11.828C11.2306 12.4253 10.9319 13.1621 10.9319 14.0382C10.9319 14.9144 11.2306 15.6511 11.828 16.2485C12.4253 16.8459 13.1621 17.1446 14.0382 17.1446ZM39.0681 27.2999C39.0681 25.8662 38.6699 24.4624 37.8734 23.0884C37.0769 21.7145 36.0414 20.6691 34.767 19.9522C33.6121 19.315 32.268 18.9765 30.7348 18.9367C29.2015 18.8969 27.7977 19.1557 26.5233 19.7133V18.7575H20.3106V39.0681H26.5233V26.6428L29.1517 25.3883C29.4703 25.229 29.8984 25.1493 30.4361 25.1493C30.9737 25.1493 31.4018 25.2489 31.7204 25.448C31.9594 25.5675 32.1983 25.8264 32.4373 26.2246C32.6762 26.6229 32.7957 26.9813 32.7957 27.2999V39.0681H39.0681V27.2999Z" fill="white"/>
</svg>

<svg width="50" height="50" fill="none" xmlns="http://www.w3.org/2000/svg"><path d="M24.97 0c3.465 0 6.71.657 9.737 1.971 3.027 1.315 5.675 3.097 7.945 5.347 2.27 2.25 4.063 4.888 5.377 7.915S50 21.505 50 24.97s-.657 6.71-1.971 9.737c-1.315 3.027-3.107 5.675-5.377 7.945-2.27 2.27-4.918 4.063-7.945 5.377C31.681 49.343 28.435 50 24.97 50s-6.71-.657-9.737-1.971c-3.027-1.315-5.665-3.107-7.915-5.377-2.25-2.27-4.032-4.918-5.347-7.945C.657 31.681 0 28.435 0 24.97s.657-6.71 1.971-9.737c1.315-3.027 3.097-5.665 5.347-7.915 2.25-2.25 4.888-4.032 7.915-5.347C18.26.657 21.505 0 24.97 0Zm-7.766 18.758h-6.272v20.31h6.272v-20.31Zm-3.166-1.613c.876 0 1.623-.3 2.24-.896.618-.598.926-1.335.926-2.21 0-.877-.308-1.614-.926-2.211-.617-.597-1.364-.896-2.24-.896-.876 0-1.613.299-2.21.896s-.896 1.334-.896 2.21c0 .876.299 1.613.896 2.21.597.598 1.334.897 2.21.897ZM39.068 27.3c0-1.434-.398-2.838-1.195-4.212-.796-1.373-1.832-2.419-3.106-3.136-1.155-.637-2.499-.976-4.032-1.015-1.534-.04-2.937.219-4.212.776v-.956h-6.212v20.311h6.212V26.643l2.629-1.255c.318-.159.746-.239 1.284-.239s.966.1 1.284.299c.24.12.478.378.717.777.24.398.359.756.359 1.075v11.768h6.272V27.3Z" fill="#fff"/></svg>
